icons/wpengine.svg

<?xml version="1.0" encoding="UTF-8" standalone="no"?>
<svg width="256px" height="256px" viewBox="0 0 256 256" version="1.1" xmlns="http://www.w3.org/2000/svg" xmlns:xlink="http://www.w3.org/1999/xlink" preserveAspectRatio="xMidYMid">
    <g>
        <path d="M86.8392157,256 L169.160784,256 L169.160784,193.756863 L149.082353,173.678431 L106.415686,173.678431 L86.8392157,193.756863 L86.8392157,256 Z M193.254902,86.8392157 L173.678431,106.415686 L173.678431,149.584314 L193.254902,169.160784 L256,169.160784 L256,86.8392157 L193.254902,86.8392157 Z M169.160784,0 L86.8392157,0 L86.8392157,62.745098 L106.415686,82.3215686 L149.082353,82.3215686 L169.160784,62.745098 L169.160784,0 Z M256,256 L256,193.756863 L236.423529,173.678431 L173.678431,173.678431 L173.678431,256 L256,256 Z M19.5764706,0 L0,19.5764706 L0,82.3215686 L82.3215686,82.3215686 L82.3215686,0 L19.5764706,0 Z M173.678431,0 L173.678431,62.745098 L193.254902,82.3215686 L256,82.3215686 L256,0 L173.678431,0 Z M128,140.047059 C121.47451,140.047059 116.454902,134.52549 116.454902,128.501961 C116.454902,121.976471 121.976471,116.956863 128,116.956863 C134.52549,116.956863 139.545098,122.478431 139.545098,128.501961 C139.545098,134.52549 134.52549,140.047059 128,140.047059 Z M82.3215686,86.8392157 L0,86.8392157 L0,169.160784 L62.2431373,169.160784 L82.3215686,149.584314 L82.3215686,86.8392157 Z M82.3215686,193.756863 L62.2431373,173.678431 L0,173.678431 L0,256 L62.2431373,256 L82.3215686,236.423529 L82.3215686,193.756863 Z" fill="#40BAC8"></path>
    </g>
</svg>

<svg xmlns="http://www.w3.org/2000/svg" viewBox="0 0 256 256">
  <path fill="#40bac8" d="M86.84 256h82.32v-62.243l-20.078-20.079h-42.666l-19.577 20.079zM193.254 86.84l-19.577 19.576v43.168l19.577 19.577H256V86.839zM169.16 0H86.839v62.745l19.577 19.577h42.666l20.079-19.577zM256 256v-62.243l-19.576-20.079h-62.746V256zM19.576 0 0 19.576v62.746h82.322V0zm154.102 0v62.745l19.577 19.577H256V0zM128 140.047c-6.525 0-11.545-5.522-11.545-11.545 0-6.526 5.521-11.545 11.545-11.545 6.525 0 11.545 5.521 11.545 11.545 0 6.023-5.02 11.545-11.545 11.545zM82.322 86.84H0v82.322h62.243l20.079-19.577zm0 106.918-20.079-20.079H0V256h62.243l20.079-19.576z"/>
</svg>
